src/main/webapp/scripts/pdfjs/v54530/web/images/toolbarButton-search.svg

<svg fill="none" height="16" viewBox="0 0 16 16" width="16" xmlns="http://www.w3.org/2000/svg"><path d="m10.089 10.973 3.845 3.844c.0578.0584.1265.1048.2024.1364.0758.0317.1572.0479.2393.0478.0822-.0001.1635-.0165.2392-.0483.0758-.0318.1445-.0783.2021-.1369.058-.0581.104-.1271.1353-.203.0313-.0758.0474-.1571.0473-.2392s-.0163-.1634-.0478-.2392-.0777-.1446-.1358-.2026l-3.833-3.832.006-.42701c.5-.70625.8262-1.5205.9523-2.37657.1261-.85608.0484-1.72982-.2268-2.55021-.2751-.82039-.74-1.56429-1.3567-2.17123-.61676-.60694-1.36801-1.05979-2.19271-1.32176-.8247-.261965-1.69958-.325648-2.55352-.18587-.85394.13977-1.66286.47906-2.361.99029s-1.26581 1.17997-1.65686 1.95186c-.39106.7719-.594474 1.62518-.59371 2.49049 0 1.45869.57946 2.85764 1.61091 3.88911 1.03145 1.0314 2.4304 1.6109 3.88909 1.6109 1.189 0 2.288-.38 3.187-1.022zm-3.589-.223c-2.343 0-4.25-1.90701-4.25-4.25001s1.907-4.25 4.25-4.25 4.25 1.907 4.25 4.25-1.907 4.25001-4.25 4.25001z" fill="#000"/></svg>

<svg width="16" height="16" viewBox="0 0 16 16" fill="none" xmlns="http://www.w3.org/2000/svg">
<path d="M10.089 10.973L13.934 14.817C13.9918 14.8754 14.0605 14.9218 14.1364 14.9534C14.2122 14.9851 14.2936 15.0013 14.3757 15.0012C14.4579 15.0011 14.5392 14.9847 14.6149 14.9529C14.6907 14.9211 14.7594 14.8746 14.817 14.816C14.875 14.7579 14.921 14.6889 14.9523 14.613C14.9836 14.5372 14.9997 14.4559 14.9996 14.3738C14.9995 14.2917 14.9833 14.2104 14.9518 14.1346C14.9203 14.0588 14.8741 13.99 14.816 13.932L10.983 10.1L10.989 9.67299C11.489 8.96674 11.8152 8.15249 11.9413 7.29642C12.0674 6.44034 11.9897 5.5666 11.7145 4.74621C11.4394 3.92582 10.9745 3.18192 10.3578 2.57498C9.74104 1.96804 8.98979 1.51519 8.16509 1.25322C7.34039 0.991255 6.46551 0.927572 5.61157 1.06735C4.75763 1.20712 3.94871 1.54641 3.25057 2.05764C2.55243 2.56887 1.98476 3.23761 1.59371 4.0095C1.20265 4.7814 0.999236 5.63468 1 6.49999C1 7.95868 1.57946 9.35763 2.61091 10.3891C3.64236 11.4205 5.04131 12 6.5 12C7.689 12 8.788 11.62 9.687 10.978L10.089 10.973V10.973ZM6.5 10.75C4.157 10.75 2.25 8.84299 2.25 6.49999C2.25 4.15699 4.157 2.24999 6.5 2.24999C8.843 2.24999 10.75 4.15699 10.75 6.49999C10.75 8.84299 8.843 10.75 6.5 10.75Z" fill="black"/>
</svg>
